X:1     %Music
T:Alnwick Football Song
B:Singing Together, Spring 1981, BBC Publications
F:http://www.folkinfo.org/songs
M:4/4     %Meter
L:1/8     %
K:F
C2 |F2 F2 E2 C2 |F2 F2 E2 C2 |F2 G2 A2 B2 | c2 c4 z2 |
w:Come lis-ten to me, San-dy lad, And I will tell you news, man, 
d2 d2 c2 c2 |B2 B2 A2 A2 |G2 A2 G2 F2 | E2 C2 z2 
w:What the lads at Aln-wick had To keep their feet in use, man, 
C2 |F2 F2 E2 C2 |F2 F2 E2 C2 |F2 G2 A2 B2 | c2 c2 c2 
w:The no-ble Duke he gave a ball, Oh let his name re-sound by all, 
c2 |d2 d2 c2 c2 |B2 B2 A2 A2 |G2 A2 G2 F2 |E2 C2 z2 
w:Both young and old, both great and small, Sing o'er his praise with-al, man. 
C2 |F2 F2 G2 E2 |F6 |]
w:Sing o'er his praise with-al.